symbols/web/waving_hand/materialsymbolsoutlined/waving_hand_wght500gradN25_40px.svg

<svg xmlns="http://www.w3.org/2000/svg" height="40" width="40"><path d="M28.542 38.5q4.125 0 7.02-2.917 2.896-2.916 2.98-7.083h-2.5q-.042 3.125-2.23 5.312Q31.625 36 28.542 36ZM1.5 11.458H4q0-3.083 2.188-5.27Q8.375 4 11.5 3.958v-2.5q-4.167.084-7.062 2.98-2.896 2.895-2.938 7.02Zm4.375 22.667Q1.708 30 1.708 24.188q0-5.813 4.167-9.938l6.083-6.083Q13.125 7 14.771 6.979q1.646-.021 2.854 1.063.125.125.292.375.166.25.333.458l4.5-4.458q1.167-1.209 2.854-1.209 1.688 0 2.896 1.167.167.25.333.479.167.229.25.438 1.125-.959 2.667-.875 1.542.083 2.667 1.166.875.875 1.062 2.146.188 1.271-.312 2.479.291.125.541.292.25.167.459.375 1.166 1.208 1.166 2.854 0 1.646-1.083 2.813l-.833.875q.208.125.437.291.229.167.396.334 1.083 1.208 1.104 2.854.021 1.646-1.187 2.812L25.75 34.125q-4.125 4.167-9.938 4.167-5.812 0-9.937-4.167Zm2.042-2.042q1.625 1.667 3.687 2.479 2.063.813 4.208.813 2.146 0 4.188-.813 2.042-.812 3.708-2.479l10.417-10.416q.333-.334.333-.813 0-.479-.333-.812-.375-.375-.854-.375t-.813.375l-5.833 5.791L24.75 24l9.375-9.375q.333-.333.333-.833 0-.5-.333-.834-.375-.375-.854-.375t-.813.375l-8.208 8.167-1.875-1.833 9.958-10q.375-.334.375-.813 0-.479-.333-.812-.375-.375-.854-.375t-.813.375l-10 9.958-1.833-1.875 7.583-7.625q.375-.333.354-.833-.02-.5-.354-.834-.333-.333-.833-.333-.5 0-.833.333L13.917 17.333q.875 2.209.521 4.479-.355 2.271-1.98 4.021L10.625 24Q12 22.5 12 20.479t-1.375-3.562l5.042-5.042Q16 11.5 16 11.021t-.333-.813q-.375-.375-.834-.354-.458.021-.833.354l-6.083 6.084Q6.25 17.958 5.438 20q-.813 2.042-.813 4.188 0 2.145.813 4.208.812 2.062 2.479 3.687Z"/></svg>

<svg xmlns="http://www.w3.org/2000/svg" height="40" width="40"><path d="M28.542 38.5Q32.667 38.5 35.562 35.583Q38.458 32.667 38.542 28.5H36.042Q36 31.625 33.812 33.812Q31.625 36 28.542 36ZM1.5 11.458H4Q4 8.375 6.188 6.188Q8.375 4 11.5 3.958V1.458Q7.333 1.542 4.438 4.438Q1.542 7.333 1.5 11.458ZM5.875 34.125Q1.708 30 1.708 24.188Q1.708 18.375 5.875 14.25L11.958 8.167Q13.125 7 14.771 6.979Q16.417 6.958 17.625 8.042Q17.75 8.167 17.917 8.417Q18.083 8.667 18.25 8.875L22.75 4.417Q23.917 3.208 25.604 3.208Q27.292 3.208 28.5 4.375Q28.667 4.625 28.833 4.854Q29 5.083 29.083 5.292Q30.208 4.333 31.75 4.417Q33.292 4.5 34.417 5.583Q35.292 6.458 35.479 7.729Q35.667 9 35.167 10.208Q35.458 10.333 35.708 10.5Q35.958 10.667 36.167 10.875Q37.333 12.083 37.333 13.729Q37.333 15.375 36.25 16.542L35.417 17.417Q35.625 17.542 35.854 17.708Q36.083 17.875 36.25 18.042Q37.333 19.25 37.354 20.896Q37.375 22.542 36.167 23.708L25.75 34.125Q21.625 38.292 15.812 38.292Q10 38.292 5.875 34.125ZM7.917 32.083Q9.542 33.75 11.604 34.562Q13.667 35.375 15.812 35.375Q17.958 35.375 20 34.562Q22.042 33.75 23.708 32.083L34.125 21.667Q34.458 21.333 34.458 20.854Q34.458 20.375 34.125 20.042Q33.75 19.667 33.271 19.667Q32.792 19.667 32.458 20.042L26.625 25.833L24.75 24L34.125 14.625Q34.458 14.292 34.458 13.792Q34.458 13.292 34.125 12.958Q33.75 12.583 33.271 12.583Q32.792 12.583 32.458 12.958L24.25 21.125L22.375 19.292L32.333 9.292Q32.708 8.958 32.708 8.479Q32.708 8 32.375 7.667Q32 7.292 31.521 7.292Q31.042 7.292 30.708 7.667L20.708 17.625L18.875 15.75L26.458 8.125Q26.833 7.792 26.812 7.292Q26.792 6.792 26.458 6.458Q26.125 6.125 25.625 6.125Q25.125 6.125 24.792 6.458L13.917 17.333Q14.792 19.542 14.438 21.812Q14.083 24.083 12.458 25.833L10.625 24Q12 22.5 12 20.479Q12 18.458 10.625 16.917L15.667 11.875Q16 11.5 16 11.021Q16 10.542 15.667 10.208Q15.292 9.833 14.833 9.854Q14.375 9.875 14 10.208L7.917 16.292Q6.25 17.958 5.438 20Q4.625 22.042 4.625 24.188Q4.625 26.333 5.438 28.396Q6.25 30.458 7.917 32.083Z"/></svg>
